X:35
T:Polska ur Petter Dufvas notbok (Ma6-35)
R:Polska
O:Verkelbäck, Småland
B:Petter Dufvas notbok
S:Petter Dufva
N:Smus Ma6 bild 37
M:3/4
L:1/8
K:D
d2 defg|a2 ABcA|dA GFED|d2 defg|a2 ABcA|d2 D4:|
|:f2 defd|g2 gagf|e2 efge|a2 abag|f2 bagf|edcABc|d2D4:|

